img/animation-badge.svg

<svg fill="none" height="24" viewBox="0 0 24 24" width="24" xmlns="http://www.w3.org/2000/svg"><path d="m10.2645.835789c1.0967-.528166 2.3743-.528165 3.471.000001l5.9109 2.84654c1.0968.52817 1.8933 1.52702 2.1642 2.71379l1.4599 6.39608c.2709 1.1868-.0134 2.4324-.7724 3.3841l-4.0905 5.1293c-.7589.9517-1.91 1.506-3.1273 1.506h-6.56061c-1.2173 0-2.36835-.5543-3.12732-1.506l-4.09048-5.1293c-.758971-.9517-1.043258-2.1973-.772383-3.3841l1.459873-6.39608c.27087-1.18677 1.06743-2.18562 2.16418-2.71379z" fill="#00ce7c"/><path d="m0 3.5 3.5 3.5 7-7" stroke="#fff" stroke-width="2" transform="translate(7.5 8)"/></svg>

<svg width="24" height="24" viewBox="0 0 24 24" fill="none" xmlns="http://www.w3.org/2000/svg">
<path d="M10.2645 0.835789C11.3612 0.307623 12.6388 0.307624 13.7355 0.83579L19.6464 3.68233C20.7432 4.2105 21.5397 5.20935 21.8106 6.39612L23.2705 12.7922C23.5414 13.979 23.2571 15.2246 22.4981 16.1763L18.4076 21.3056C17.6487 22.2573 16.4976 22.8116 15.2803 22.8116H8.71969C7.50239 22.8116 6.35134 22.2573 5.59237 21.3056L1.50189 16.1763C0.742919 15.2246 0.458632 13.979 0.729507 12.7922L2.18938 6.39612C2.46025 5.20935 3.25681 4.2105 4.35356 3.68233L10.2645 0.835789Z" fill="#00CE7C"/>
<path d="M0 3.5L3.5 7L10.5 0" transform="translate(7.5 8)" stroke="white" stroke-width="2"/>
</svg>
